src/assets/icon/icon-stats.svg

<svg width="20" height="20" viewBox="0 0 20 20" fill="none" xmlns="http://www.w3.org/2000/svg">
<path d="M4.0625 18.875H2.8125C2.69647 18.875 2.58519 18.8289 2.50314 18.7469C2.42109 18.6648 2.375 18.5535 2.375 18.4375V12.8125C2.375 12.6965 2.42109 12.5852 2.50314 12.5031C2.58519 12.4211 2.69647 12.375 2.8125 12.375H4.0625C4.17853 12.375 4.28981 12.4211 4.37186 12.5031C4.45391 12.5852 4.5 12.6965 4.5 12.8125V18.4375C4.5 18.5535 4.45391 18.6648 4.37186 18.7469C4.28981 18.8289 4.17853 18.875 4.0625 18.875ZM12.8125 18.875H11.5625C11.4465 18.875 11.3352 18.8289 11.2531 18.7469C11.1711 18.6648 11.125 18.5535 11.125 18.4375V9.0625C11.125 8.94647 11.1711 8.83519 11.2531 8.75314C11.3352 8.67109 11.4465 8.625 11.5625 8.625H12.8125C12.9285 8.625 13.0398 8.67109 13.1219 8.75314C13.2039 8.83519 13.25 8.94647 13.25 9.0625V18.4375C13.25 18.5535 13.2039 18.6648 13.1219 18.7469C13.0398 18.8289 12.9285 18.875 12.8125 18.875ZM17.1875 18.875H15.9375C15.8215 18.875 15.7102 18.8289 15.6281 18.7469C15.5461 18.6648 15.5 18.5535 15.5 18.4375V4.6875C15.5 4.57147 15.5461 4.46019 15.6281 4.37814C15.7102 4.29609 15.8215 4.25 15.9375 4.25H17.1875C17.3035 4.25 17.4148 4.29609 17.4969 4.37814C17.5789 4.46019 17.625 4.57147 17.625 4.6875V18.4375C17.625 18.5535 17.5789 18.6648 17.4969 18.7469C17.4148 18.8289 17.3035 18.875 17.1875 18.875ZM8.4375 18.875H7.1875C7.07147 18.875 6.96019 18.8289 6.87814 18.7469C6.79609 18.6648 6.75 18.5535 6.75 18.4375V1.5625C6.75 1.44647 6.79609 1.33519 6.87814 1.25314C6.96019 1.17109 7.07147 1.125 7.1875 1.125H8.4375C8.55353 1.125 8.66481 1.17109 8.74686 1.25314C8.82891 1.33519 8.875 1.44647 8.875 1.5625V18.4375C8.875 18.5535 8.82891 18.6648 8.74686 18.7469C8.66481 18.8289 8.55353 18.875 8.4375 18.875Z" stroke="#1D1C49"/>
</svg>

<svg xmlns="http://www.w3.org/2000/svg" width="20" height="20" fill="none"><path stroke="#1D1C49" d="M4.063 18.875h-1.25a.438.438 0 0 1-.438-.438v-5.625a.438.438 0 0 1 .438-.437h1.25a.438.438 0 0 1 .437.438v5.624a.438.438 0 0 1-.438.438Zm8.75 0h-1.25a.438.438 0 0 1-.438-.438V9.063a.438.438 0 0 1 .438-.437h1.25a.438.438 0 0 1 .437.438v9.374a.438.438 0 0 1-.438.438Zm4.374 0h-1.25a.438.438 0 0 1-.437-.438V4.688a.438.438 0 0 1 .438-.437h1.25a.438.438 0 0 1 .437.438v13.75a.438.438 0 0 1-.438.437Zm-8.75 0h-1.25a.438.438 0 0 1-.437-.438V1.563a.437.437 0 0 1 .438-.437h1.25a.437.437 0 0 1 .437.438v16.875a.438.438 0 0 1-.438.437Z"/></svg>
